X:1907
T:Bourrée de Royat
R:Bourrée à 3 temps
A:Massif Central
O:France
M:3/4
L:1/4
Q:1/4=220
K:F
C|:FAA|G B/2A/2G/2F/2|EGG|FAC|FAA|G B/2A/2G/2F/2|EGG|1F z C:|2F z
A/2B/2|
|:c2 d|G2 G/2A/2|B c/2B/2A/2G/2|AF A/2B/2|c2 d|G2 G/2A/2|B
c/2B/2A/2G/2|1F z A/2B/2:|2F z C||


